Front/img/common-section_sousmetier/illu-9.svg

<svg width="470" height="541" viewBox="0 0 470 541" fill="none" xmlns="http://www.w3.org/2000/svg">
<path d="M298.822 253V539.5H405.802V191L298.822 253Z" fill="white"/>
<rect x="315.818" y="264" width="14.9972" height="23" fill="#E1E1E1"/>
<rect x="345.812" y="264" width="14.9971" height="23" fill="#E1E1E1"/>
<rect x="375.807" y="264" width="14.9971" height="23" fill="#E1E1E1"/>
<rect x="315.818" y="304" width="14.9972" height="23" fill="#E1E1E1"/>
<rect x="345.812" y="304" width="14.9971" height="23" fill="#E1E1E1"/>
<rect x="375.807" y="304" width="14.9971" height="23" fill="#E1E1E1"/>
<rect x="315.818" y="344" width="14.9972" height="23" fill="#E1E1E1"/>
<rect x="345.812" y="344" width="14.9971" height="23" fill="#E1E1E1"/>
<rect x="375.807" y="344" width="14.9971" height="23" fill="#E1E1E1"/>
<rect x="315.818" y="384" width="14.9972" height="23" fill="#E1E1E1"/>
<rect x="345.812" y="384" width="14.9971" height="23" fill="#E1E1E1"/>
<rect x="375.807" y="384" width="14.9971" height="23" fill="#E1E1E1"/>
<path d="M241.355 326.289L327.658 370.869V531.973H241.355V326.289Z" fill="white"/>
<path d="M315.527 400.624L315.527 396L251.832 396L251.832 400.624L315.527 400.624Z" fill="#FF8139"/>
<path fill-rule="evenodd" clip-rule="evenodd" d="M267.883 400.089L315.326 400.089L315.326 396.164L267.883 400.089Z" fill="#D3662F"/>
<path d="M315.326 384.675L315.326 380.051L251.631 380.051L251.631 384.675L315.326 384.675Z" fill="#FF8139"/>
<path fill-rule="evenodd" clip-rule="evenodd" d="M255.684 384.624L315.525 384.624L315.525 380.02L255.684 384.624Z" fill="#D3662F"/>
<path d="M315.326 461.745L315.326 457.121L251.631 457.121L251.631 461.745L315.326 461.745Z" fill="#FF8139"/>
<path fill-rule="evenodd" clip-rule="evenodd" d="M253.749 461.624L315.525 461.624L315.525 457L314.273 457L253.749 461.624Z" fill="#D3662F"/>
<path d="M315.326 446.331L315.326 441.707L251.631 441.707L251.631 446.331L315.326 446.331Z" fill="#FF8139"/>
<path fill-rule="evenodd" clip-rule="evenodd" d="M262.567 446.624L315.525 446.624L315.525 442L313.78 442L262.567 446.624Z" fill="#D3662F"/>
<path d="M315.326 430.917L315.326 426.293L251.631 426.293L251.631 430.917L315.326 430.917Z" fill="#FF8139"/>
<path fill-rule="evenodd" clip-rule="evenodd" d="M259.293 430.624L315.525 430.624L315.525 426.328L259.293 430.624Z" fill="#D3662F"/>
<path d="M315.326 415.503L315.326 410.879L251.631 410.879L251.631 415.503L315.326 415.503Z" fill="#FF8139"/>
<path fill-rule="evenodd" clip-rule="evenodd" d="M265.263 415.625L315.525 415.625L315.525 411.285L265.263 415.625Z" fill="#D3662F"/>
<rect width="120.563" height="8.41049" rx="4.20524" transform="matrix(0.865984 0.500072 -0.499928 0.866067 234.041 314)" fill="#152D5D"/>
<rect width="142.863" height="8.41049" rx="4.20524" transform="matrix(-0.865984 0.500072 0.499928 0.866067 410.227 180)" fill="#152D5D"/>
<path d="M241.947 463.867C241.947 463.867 261.717 463.867 261.717 445.383C261.717 426.898 249.254 421.74 251.833 408.199C254.411 394.658 244.096 381.332 229.91 389.499C215.723 397.666 226.717 425.68 221.744 434.207C216.771 442.733 215.3 465.158 241.947 463.867Z" fill="#24AD79"/>
<path fill-rule="evenodd" clip-rule="evenodd" d="M235.846 387.341C239.963 390.411 244.443 395.986 241.892 403C237.893 414 237.393 425 241.892 434C246.021 442.26 248.887 457.257 240.058 463.92C240.842 463.925 241.654 463.908 242.494 463.867C242.494 463.867 262.264 463.867 262.264 445.383C262.264 436.133 259.144 430.22 256.348 424.924C253.558 419.637 251.091 414.964 252.38 408.199C254.618 396.444 247.139 384.85 235.846 387.341Z" fill="#179364"/>
<rect x="238.564" y="450.074" width="2.81657" height="31.9268" fill="white"/>
<path d="M405.257 502.017C405.257 502.017 380.819 502.017 380.819 479.168C380.819 456.319 396.225 449.943 393.037 433.205C389.85 416.467 402.601 399.994 420.137 410.089C437.673 420.185 424.084 454.813 430.231 465.353C436.378 475.893 438.196 503.613 405.257 502.017Z" fill="#24AD79"/>
<path fill-rule="evenodd" clip-rule="evenodd" d="M409.356 407.003C413.794 410.818 417.232 417.56 414.746 428.5C409.747 450.5 413.246 459.5 417.745 467.5C422.218 475.453 415.328 504.157 383.817 491.235C390.378 502.017 405.191 502.017 405.191 502.017C438.13 503.613 436.311 475.893 430.164 465.353C427.826 461.343 428.344 453.847 428.918 445.541C429.852 432.016 430.935 416.344 420.071 410.089C416.231 407.878 412.62 406.942 409.356 407.003Z" fill="#179364"/>
<rect width="3.48148" height="39.4655" transform="matrix(-1 0 0 1 409.438 484.965)" fill="white"/>
<path d="M279.183 479H90.873V540.032H469.8C469.628 528.919 460.57 520 449.456 520H421.039C402.558 520 368.234 517.809 351.609 501.5C326.635 477 300.661 479 279.183 479Z" fill="#152D5D"/>
<path d="M258.342 499C254.743 485.8 243.511 480.5 238.346 479.5H246.844C254.843 482.3 261.508 492.667 263.841 497.5C289.336 492.5 297.334 512.5 298.834 521.5C300.034 528.7 307.666 536.167 311.332 539H271.839C268.84 533.5 255.842 532.5 250.343 520C245.944 510 253.843 501.833 258.342 499Z" fill="#0C2048"/>
<path d="M157.361 539C148.962 510.2 124.867 487.333 113.869 479.5H208.351C230.347 495.5 249.51 525.833 251.343 539H157.361Z" fill="#0C2048"/>
<path d="M339.74 540.012C331.582 510.812 309.031 486.667 298.834 479C330.006 479.996 342.321 491.052 355.793 503.664C364.898 512.188 384.259 516.459 389.843 517.43L422.659 520.5C430.914 521 445.659 522.371 451.309 524C463.448 527.5 470.262 535.881 469.777 539.881L339.74 540.012Z" fill="#0C2048"/>
<path d="M14.846 336.131C22.6973 325.608 42.9284 326.279 55.9036 318.86C60.7313 316.1 64.3562 301.47 64.2826 291.851C53.5959 285.574 44.1625 260.144 44.0512 237.916C43.9139 210.485 57.4132 188.456 77.8842 188.353C98.3552 188.251 112.063 210.372 112.2 237.804C112.309 259.624 107.576 281.773 95.1062 289.717C95.1542 299.297 97.372 309.81 102.291 312.559C115.34 319.848 133.64 317.041 140.976 327.896C160.999 357.582 162.11 415.895 162.11 415.895L7.0263 445.074C7.0263 445.074 -11.1161 375.441 14.846 336.131Z" fill="#F4C7C3"/>
<path d="M62.3008 306C60.7008 313.6 57.8008 318.5 52.8008 319.5L67.3008 330L93.3008 331L108.801 314.5C100.801 313.3 97.4674 307 96.8008 304C85.2008 311.6 68.8008 308.5 62.3008 306Z" fill="black"/>
<path d="M80.5613 220.35C104.395 217.001 112.308 244.8 111.507 255C120.045 222.758 95.2778 212.296 81.8271 211.096L44.0813 219.251L45.1223 252.917L48.6936 227.202C66.2755 228.851 72.3953 220.35 80.5613 220.35Z" fill="#DCB3AF"/>
<path d="M140.59 321.671C127.269 316.284 117.082 316.149 102.818 312.49C101.994 315.782 97.3962 325.5 80.3962 327C76.8962 327 63.648 327.729 55.6987 318.891C33.7099 321.878 22.1732 325.208 14.3219 335.731C-11.3743 370.174 6.1294 445.198 6.1294 445.198L208.985 407.698C208.985 407.698 175.355 335.73 140.59 321.671Z" fill="black"/>
<path d="M30.3959 540L24.039 439.452L156.713 404.273L168.896 540L30.3959 540Z" fill="black"/>
<path d="M122.264 469.244L111.801 490.366C124.822 500.223 135.052 496.82 138.54 494.473C140.284 490.953 144.353 483.325 145.515 480.392C146.678 477.458 143.965 476.574 143.19 476.183C139.121 473.836 130.169 468.892 126.914 467.484C123.659 466.076 122.845 468.071 122.264 469.244Z" fill="#E1E1E1"/>
<path d="M126.853 469.273C124.511 468.329 123.145 470.059 122.755 471.042L112.801 491.09C124.043 498.637 133.099 497.38 136.221 495.807C137.978 492.466 141.842 485.076 143.248 482.245C144.653 479.415 143.052 477.921 142.077 477.528C137.978 475.169 129.195 470.216 126.853 469.273Z" fill="#4284B5"/>
<path d="M-0.325446 444.494C-1.31119 426.076 -0.554845 380.775 1.39547 372.501L57.1446 387.972C52.1442 399.166 43.5317 428.158 46.5621 430.505C53.4887 435.87 83.0068 457.005 104.522 469.459L95.6778 494.781C25.8275 474.457 7.65246 454.493 -0.325446 444.494Z" fill="black"/>
<path d="M86.3008 498C68.7008 489.6 38.6341 473.5 25.8008 466.5L26.3008 474L88.8008 506L88.8008 494L86.3008 498Z" fill="#00181B"/>
<path d="M115.801 482C112.9 482 106.522 480.809 102.493 479C93.7896 482.859 90.4052 492.266 89.8008 496.487C90.4052 497.09 92.0974 499.02 94.0314 501.915C96.4489 505.533 103.635 515.234 108.301 516.5C114.949 518.304 126.063 520.005 130.898 518.196C134.766 516.749 134.524 514.377 133.92 513.372C136.821 510.96 136.337 507.945 135.733 506.739C138.634 503.844 138.151 501.111 137.546 500.106C139.48 497.211 138.755 494.879 138.151 494.075C130.898 498.899 117.412 491.246 112.779 488.03L115.801 482Z" fill="#E2BBA6"/>
<path opacity="0.1" d="M84.834 294.766C81.2759 295.568 77.5862 295.586 74.0203 294.82C74.0203 294.82 79.2311 300.049 84.834 294.766Z" fill="black"/>
<path d="M80.3763 214.909C103.396 210.499 112.482 230.42 111.44 254.503C116.196 241.886 132.396 209.499 116.396 201.499C111.011 198.807 105.099 199.794 96.6775 195.199C89.8956 191.499 85.7874 184.017 73.3956 183.999C60.3982 183.979 48.6914 200.333 43.8956 203.499C25.8109 210.89 40.3108 243.841 45.5348 253.721L46.1622 245.709L49.1654 223.292C60.4495 225.074 73.2036 216.283 80.3763 214.909Z" fill="#2F2417"/>
<path d="M114.895 210.003C120.895 214.003 120.062 228.669 118.895 235.502C131.895 198.502 114.895 201.502 102.895 198.002C90.8952 194.502 94.8952 191.502 81.8952 185.502C71.4952 180.703 60.8952 187.502 56.8952 191.502C61.7286 188.502 73.9952 185.202 84.3952 196.002C97.3952 209.502 107.395 205.003 114.895 210.003Z" fill="#6B4F2D"/>
<path d="M203.896 294L202.396 300.5L231.896 300.5L231.896 299L203.896 294Z" fill="#142B5A"/>
<rect width="6" height="172.153" transform="matrix(-0.988309 -0.152465 -0.152465 0.988309 257.895 138.914)" fill="#C4C4C4"/>
<path d="M235.896 292.5C239.496 291.3 242.063 288.333 242.896 287L233.396 286L230.396 299L234.896 300L235.896 292.5Z" fill="#E2BBA6"/>
<path d="M238.374 247.729C236.26 248.598 227.777 256.836 223.799 260.847L225.549 284.488C229.386 286.596 237.567 290.484 239.596 289.175C242.132 287.539 248.184 286.36 247.984 282.402C247.784 278.444 250.534 277.908 251.434 273.735C252.335 269.563 250.47 268.784 250.041 266.584C249.613 264.383 251.492 262.304 248.648 259.432C245.805 256.56 246.033 254.802 245.712 253.152C245.39 251.501 241.018 246.643 238.374 247.729Z" fill="#CBA895"/>
<path d="M215.374 284.621C215.455 285.964 213.662 293.52 212.756 297.131L231.487 300.498L233.344 284.665C234.023 283.501 235.314 280.055 235.045 275.579C234.709 269.984 227.391 260.317 230.647 258.437C233.903 256.557 245.428 261.48 245.753 257.53C246.077 253.58 242.72 253.782 241.008 253.323C239.296 252.865 224.381 247.584 222.244 249.396C220.106 251.209 213.897 260.004 214.098 263.361C214.3 266.718 216.415 273.89 214.904 276.788C213.394 279.686 215.273 282.942 215.374 284.621Z" fill="#E2BBA6"/>
<path d="M157.801 415.5L204.801 292L238.301 297.5C231.801 341.167 213.901 429.9 194.301 435.5C174.701 441.1 161.801 424.5 157.801 415.5Z" fill="black"/>
<path d="M339.025 174.507C376.031 154.962 422.042 176.715 432.781 189C440.711 109.496 400.565 57.8731 375.784 42H171.75H160.599C96.5799 48.2113 73.8636 104.113 75.9287 140.138C116.24 110.986 144.766 135.721 153.99 151.732C193.971 113.305 235.356 142.761 247.746 158.772C293.675 134.921 328.974 156.287 339.025 174.507Z" fill="#081B42"/>
<path d="M148.302 22.9981C85.8016 57.458 74.8016 116.498 76.8016 139.998L160.302 78.9979L387.802 51.4979C352.302 12.9978 240.801 -28.0024 148.302 22.9981Z" fill="#081B42"/>
</svg>

<svg xmlns="http://www.w3.org/2000/svg" fill="none" viewBox="0 0 470 541"><path fill="#fff" d="M298.822 253v286.5h106.98V191l-106.98 62z"/><path fill="#E1E1E1" d="M315.818 264h14.997v23h-14.997zM345.812 264h14.997v23h-14.997zM375.807 264h14.997v23h-14.997zM315.818 304h14.997v23h-14.997zM345.812 304h14.997v23h-14.997zM375.807 304h14.997v23h-14.997zM315.818 344h14.997v23h-14.997zM345.812 344h14.997v23h-14.997zM375.807 344h14.997v23h-14.997zM315.818 384h14.997v23h-14.997zM345.812 384h14.997v23h-14.997zM375.807 384h14.997v23h-14.997z"/><path fill="#fff" d="M241.355 326.289l86.303 44.58v161.104h-86.303V326.289z"/><path fill="#FF8139" d="M315.527 400.624V396h-63.695v4.624h63.695z"/><path fill="#D3662F" fill-rule="evenodd" d="M267.883 400.089h47.443v-3.925l-47.443 3.925z" clip-rule="evenodd"/><path fill="#FF8139" d="M315.326 384.675v-4.624h-63.695v4.624h63.695z"/><path fill="#D3662F" fill-rule="evenodd" d="M255.684 384.624h59.841v-4.604l-59.841 4.604z" clip-rule="evenodd"/><path fill="#FF8139" d="M315.326 461.745v-4.624h-63.695v4.624h63.695z"/><path fill="#D3662F" fill-rule="evenodd" d="M253.749 461.624h61.776V457h-1.252l-60.524 4.624z" clip-rule="evenodd"/><path fill="#FF8139" d="M315.326 446.331v-4.624h-63.695v4.624h63.695z"/><path fill="#D3662F" fill-rule="evenodd" d="M262.567 446.624h52.958V442h-1.745l-51.213 4.624z" clip-rule="evenodd"/><path fill="#FF8139" d="M315.326 430.917v-4.624h-63.695v4.624h63.695z"/><path fill="#D3662F" fill-rule="evenodd" d="M259.293 430.624h56.232v-4.296l-56.232 4.296z" clip-rule="evenodd"/><path fill="#FF8139" d="M315.326 415.503v-4.624h-63.695v4.624h63.695z"/><path fill="#D3662F" fill-rule="evenodd" d="M265.263 415.625h50.262v-4.34l-50.262 4.34z" clip-rule="evenodd"/><rect width="120.563" height="8.41" fill="#152D5D" rx="4.205" transform="rotate(30.005 -468.814 593.654) skewX(.01)"/><rect width="142.863" height="8.41" fill="#152D5D" rx="4.205" transform="matrix(-.86598 .50007 .49993 .86607 410.227 180)"/><path fill="#24AD79" d="M241.947 463.867s19.77 0 19.77-18.484c0-18.485-12.463-23.643-9.884-37.184 2.578-13.541-7.737-26.867-21.923-18.7-14.187 8.167-3.193 36.181-8.166 44.708-4.973 8.526-6.444 30.951 20.203 29.66z"/><path fill="#179364" fill-rule="evenodd" d="M235.846 387.341c4.117 3.07 8.597 8.645 6.046 15.659-3.999 11-4.499 22 0 31 4.129 8.26 6.995 23.257-1.834 29.92.784.005 1.596-.012 2.436-.053 0 0 19.77 0 19.77-18.484 0-9.25-3.12-15.163-5.916-20.459-2.79-5.287-5.257-9.96-3.968-16.725 2.238-11.755-5.241-23.349-16.534-20.858z" clip-rule="evenodd"/><path fill="#fff" d="M238.564 450.074h2.817v31.927h-2.817z"/><path fill="#24AD79" d="M405.257 502.017s-24.438 0-24.438-22.849 15.406-29.225 12.218-45.963c-3.187-16.738 9.564-33.211 27.1-23.116 17.536 10.096 3.947 44.724 10.094 55.264 6.147 10.54 7.965 38.26-24.974 36.664z"/><path fill="#179364" fill-rule="evenodd" d="M409.356 407.003c4.438 3.815 7.876 10.557 5.39 21.497-4.999 22-1.5 31 2.999 39 4.473 7.953-2.417 36.657-33.928 23.735 6.561 10.782 21.374 10.782 21.374 10.782 32.939 1.596 31.12-26.124 24.973-36.664-2.338-4.01-1.82-11.506-1.246-19.812.934-13.525 2.017-29.197-8.847-35.452-3.84-2.211-7.451-3.147-10.715-3.086z" clip-rule="evenodd"/><path fill="#fff" d="M409.438 484.965h-3.481v39.465h3.481z"/><path fill="#152D5D" d="M279.183 479H90.873v61.032H469.8c-.172-11.113-9.23-20.032-20.344-20.032h-28.417c-18.481 0-52.805-2.191-69.43-18.5-24.974-24.5-50.948-22.5-72.426-22.5z"/><path fill="#0C2048" d="M258.342 499c-3.599-13.2-14.831-18.5-19.996-19.5h8.498c7.999 2.8 14.664 13.167 16.997 18 25.495-5 33.493 15 34.993 24 1.2 7.2 8.832 14.667 12.498 17.5h-39.493c-2.999-5.5-15.997-6.5-21.496-19-4.399-10 3.5-18.167 7.999-21zM157.361 539c-8.399-28.8-32.494-51.667-43.492-59.5h94.482c21.996 16 41.159 46.333 42.992 59.5h-93.982zM339.74 540.012c-8.158-29.2-30.709-53.345-40.906-61.012 31.172.996 43.487 12.052 56.959 24.664 9.105 8.524 28.466 12.795 34.05 13.766l32.816 3.07c8.255.5 23 1.871 28.65 3.5 12.139 3.5 18.953 11.881 18.468 15.881l-130.037.131z"/><path fill="#F4C7C3" d="M14.846 336.131c7.851-10.523 28.082-9.852 41.058-17.271 4.827-2.76 8.452-17.39 8.379-27.009-10.687-6.277-20.12-31.707-20.232-53.935-.137-27.431 13.362-49.46 33.833-49.563 20.471-.102 34.179 22.019 34.316 49.451.109 21.82-4.624 43.969-17.094 51.913.048 9.58 2.266 20.093 7.185 22.842 13.049 7.289 31.349 4.482 38.685 15.337 20.023 29.686 21.134 87.999 21.134 87.999L7.026 445.074s-18.142-69.633 7.82-108.943z"/><path fill="#000" d="M62.3 306c-1.6 7.6-4.5 12.5-9.5 13.5L67.3 330l26 1 15.501-16.5c-8-1.2-11.334-7.5-12-10.5-11.6 7.6-28 4.5-34.5 2z"/><path fill="#DCB3AF" d="M80.561 220.35c23.834-3.349 31.747 24.45 30.946 34.65 8.538-32.242-16.23-42.704-29.68-43.904l-37.746 8.155 1.041 33.666 3.572-25.715c17.581 1.649 23.701-6.852 31.867-6.852z"/><path fill="#000" d="M140.59 321.671c-13.321-5.387-23.508-5.522-37.772-9.181-.824 3.292-5.422 13.01-22.422 14.51-3.5 0-16.748.729-24.697-8.109-21.99 2.987-33.526 6.317-41.377 16.84-25.696 34.443-8.193 109.467-8.193 109.467l202.856-37.5s-33.63-71.968-68.395-86.027z"/><path fill="#000" d="M30.396 540l-6.357-100.548 132.674-35.179L168.896 540h-138.5z"/><path fill="#E1E1E1" d="M122.264 469.244l-10.463 21.122c13.021 9.857 23.251 6.454 26.739 4.107 1.744-3.52 5.813-11.148 6.975-14.081 1.163-2.934-1.55-3.818-2.325-4.209-4.069-2.347-13.021-7.291-16.276-8.699-3.255-1.408-4.069.587-4.65 1.76z"/><path fill="#4284B5" d="M126.853 469.273c-2.342-.944-3.708.786-4.098 1.769l-9.954 20.048c11.242 7.547 20.298 6.29 23.42 4.717 1.757-3.341 5.621-10.731 7.027-13.562 1.405-2.83-.196-4.324-1.171-4.717-4.099-2.359-12.882-7.312-15.224-8.255z"/><path fill="#000" d="M-.325 444.494c-.986-18.418-.23-63.719 1.72-71.993l55.75 15.471c-5 11.194-13.613 40.186-10.583 42.533 6.927 5.365 36.445 26.5 57.96 38.954l-8.844 25.322c-69.85-20.324-88.026-40.288-96.003-50.287z"/><path fill="#00181B" d="M86.3 498c-17.6-8.4-47.666-24.5-60.5-31.5l.5 7.5 62.5 32v-12l-2.5 4z"/><path fill="#E2BBA6" d="M115.801 482c-2.901 0-9.279-1.191-13.308-3-8.703 3.859-12.088 13.266-12.692 17.487.604.603 2.296 2.533 4.23 5.428 2.418 3.618 9.604 13.319 14.27 14.585 6.648 1.804 17.762 3.505 22.597 1.696 3.868-1.447 3.626-3.819 3.022-4.824 2.901-2.412 2.417-5.427 1.813-6.633 2.901-2.895 2.418-5.628 1.813-6.633 1.934-2.895 1.209-5.227.605-6.031-7.253 4.824-20.739-2.829-25.372-6.045l3.022-6.03z"/><path fill="#000" d="M84.834 294.766c-3.558.802-7.248.82-10.814.054 0 0 5.211 5.229 10.814-.054z" opacity=".1"/><path fill="#2F2417" d="M80.376 214.909c23.02-4.41 32.106 15.511 31.064 39.594 4.756-12.617 20.956-45.004 4.956-53.004-5.385-2.692-11.297-1.705-19.719-6.3-6.781-3.7-10.89-11.182-23.281-11.2-12.998-.02-24.705 16.334-29.5 19.5-18.085 7.391-3.585 40.342 1.639 50.222l.627-8.012 3.003-22.417c11.285 1.782 24.039-7.009 31.211-8.383z"/><path fill="#6B4F2D" d="M114.895 210.003c6 4 5.167 18.666 4 25.499 13-37-4-34-16-37.5s-8-6.5-21-12.5c-10.4-4.799-21 2-25 6 4.834-3 17.1-6.3 27.5 4.5 13 13.5 23 9.001 30.5 14.001z"/><path fill="#142B5A" d="M203.896 294l-1.5 6.5h29.5V299l-28-5z"/><path fill="#C4C4C4" d="M257.895 138.914l-5.93-.915-26.247 170.14 5.93.915z"/><path fill="#E2BBA6" d="M235.896 292.5c3.6-1.2 6.167-4.167 7-5.5l-9.5-1-3 13 4.5 1 1-7.5z"/><path fill="#CBA895" d="M238.374 247.729c-2.114.869-10.597 9.107-14.575 13.118l1.75 23.641c3.837 2.108 12.018 5.996 14.047 4.687 2.536-1.636 8.588-2.815 8.388-6.773-.2-3.958 2.55-4.494 3.45-8.667.901-4.172-.964-4.951-1.393-7.151-.428-2.201 1.451-4.28-1.393-7.152-2.843-2.872-2.615-4.63-2.936-6.28-.322-1.651-4.694-6.509-7.338-5.423z"/><path fill="#E2BBA6" d="M215.374 284.621c.081 1.343-1.712 8.899-2.618 12.51l18.731 3.367 1.857-15.833c.679-1.164 1.97-4.61 1.701-9.086-.336-5.595-7.654-15.262-4.398-17.142 3.256-1.88 14.781 3.043 15.106-.907.324-3.95-3.033-3.748-4.745-4.207-1.712-.458-16.627-5.739-18.764-3.927-2.138 1.813-8.347 10.608-8.146 13.965.202 3.357 2.317 10.529.806 13.427-1.51 2.898.369 6.154.47 7.833z"/><path fill="#000" d="M157.801 415.5l47-123.5 33.5 5.5c-6.5 43.667-24.4 132.4-44 138-19.6 5.6-32.5-11-36.5-20z"/><path fill="#081B42" d="M339.025 174.507c37.006-19.545 83.017 2.208 93.756 14.493 7.93-79.504-32.216-131.127-56.997-147H160.599c-64.02 6.211-86.735 62.113-84.67 98.138 40.311-29.152 68.837-4.417 78.061 11.594 39.981-38.427 81.366-8.971 93.756 7.04 45.929-23.851 81.228-2.485 91.279 15.735z"/><path fill="#081B42" d="M148.302 22.998c-62.5 34.46-73.5 93.5-71.5 117l83.5-61 227.5-27.5c-35.5-38.5-147.001-79.5-239.5-28.5z"/></svg>
